Papirus/22x22/apps/cs-applets.svg

<svg xmlns="http://www.w3.org/2000/svg" width="22" height="22" version="1">
 <rect fill="#5f7c8a" width="16" height="20" x="-19" y="-21" rx="1" ry="1" transform="matrix(0,-1,-1,0,0,0)"/>
 <rect fill="#7f96a1" width="12" height="16" x="-17" y="-19" rx="0" ry="0" transform="matrix(0,-1,-1,0,0,0)"/>
 <path fill="#fff" opacity=".2" d="m2 3c-0.554 0-1 0.446-1 1v0.5c0-0.554 0.446-1 1-1h18c0.554 0 1 0.446 1 1v-0.5c0-0.554-0.446-1-1-1h-18z"/>
 <path opacity=".2" d="m3.5 14.5h2c0.277 0 0.5 0.223 0.5 0.5v2c0 0.277-0.223 0.5-0.5 0.5h-2c-0.277 0-0.5-0.223-0.5-0.5v-2c0-0.277 0.223-0.5 0.5-0.5z"/>
 <path opacity=".2" d="m7.5 14.5h2c0.277 0 0.5 0.223 0.5 0.5v2c0 0.277-0.223 0.5-0.5 0.5h-2c-0.277 0-0.5-0.223-0.5-0.5v-2c0-0.277 0.223-0.5 0.5-0.5z"/>
 <path opacity=".2" d="m11.5 14.5h2c0.277 0 0.5 0.223 0.5 0.5v2c0 0.277-0.223 0.5-0.5 0.5h-2c-0.277 0-0.5-0.223-0.5-0.5v-2c0-0.277 0.223-0.5 0.5-0.5z"/>
 <path opacity=".2" d="m15.5 14.5h2c0.277 0 0.5 0.223 0.5 0.5v2c0 0.277-0.223 0.5-0.5 0.5h-2c-0.277 0-0.5-0.223-0.5-0.5v-2c0-0.277 0.223-0.5 0.5-0.5z"/>
 <path fill="#fff" d="m3.5 14h2c0.277 0 0.5 0.223 0.5 0.5v2c0 0.277-0.223 0.5-0.5 0.5h-2c-0.277 0-0.5-0.223-0.5-0.5v-2c0-0.277 0.223-0.5 0.5-0.5z"/>
 <path fill="#fff" d="m7.5 14h2c0.277 0 0.5 0.223 0.5 0.5v2c0 0.277-0.223 0.5-0.5 0.5h-2c-0.277 0-0.5-0.223-0.5-0.5v-2c0-0.277 0.223-0.5 0.5-0.5z"/>
 <path fill="#fff" d="m11.5 14h2c0.277 0 0.5 0.223 0.5 0.5v2c0 0.277-0.223 0.5-0.5 0.5h-2c-0.277 0-0.5-0.223-0.5-0.5v-2c0-0.277 0.223-0.5 0.5-0.5z"/>
 <path fill="#fff" d="m15.5 14h2c0.277 0 0.5 0.223 0.5 0.5v2c0 0.277-0.223 0.5-0.5 0.5h-2c-0.277 0-0.5-0.223-0.5-0.5v-2c0-0.277 0.223-0.5 0.5-0.5z"/>
 <path opacity=".2" d="m1 18v0.5c0 0.554 0.446 1 1 1h18c0.554 0 1-0.446 1-1v-0.5c0 0.554-0.446 1-1 1h-18c-0.554 0-1-0.446-1-1z"/>
</svg>

<svg xmlns="http://www.w3.org/2000/svg" width="22" height="22" version="1">
 <rect style="fill:#325f78" width="16" height="20" x="-19" y="-21" rx="1" ry="1" transform="matrix(0,-1,-1,0,0,0)"/>
 <rect style="opacity:0.2" width="12" height="16" x="-17" y="-19" rx="0" ry="0" transform="matrix(0,-1,-1,0,0,0)"/>
 <path style="opacity:0.1;fill:#ffffff" d="M 2,3 C 1.446,3 1,3.446 1,4 l 0,0.5 c 0,-0.554 0.446,-1 1,-1 l 18,0 c 0.554,0 1,0.446 1,1 L 21,4 C 21,3.446 20.554,3 20,3 L 2,3 Z"/>
 <path style="opacity:0.2" d="m 3.5,14.5 2,0 C 5.777,14.5 6,14.723 6,15 l 0,2 c 0,0.277 -0.223,0.5 -0.5,0.5 l -2,0 C 3.223,17.5 3,17.277 3,17 l 0,-2 c 0,-0.277 0.223,-0.5 0.5,-0.5 z"/>
 <path style="opacity:0.2" d="m 7.5,14.5 2,0 c 0.277,0 0.5,0.223 0.5,0.5 l 0,2 c 0,0.277 -0.223,0.5 -0.5,0.5 l -2,0 C 7.223,17.5 7,17.277 7,17 l 0,-2 c 0,-0.277 0.223,-0.5 0.5,-0.5 z"/>
 <path style="opacity:0.2" d="m 11.5,14.5 2,0 c 0.277,0 0.5,0.223 0.5,0.5 l 0,2 c 0,0.277 -0.223,0.5 -0.5,0.5 l -2,0 C 11.223,17.5 11,17.277 11,17 l 0,-2 c 0,-0.277 0.223,-0.5 0.5,-0.5 z"/>
 <path style="opacity:0.2" d="m 15.5,14.5 2,0 c 0.277,0 0.5,0.223 0.5,0.5 l 0,2 c 0,0.277 -0.223,0.5 -0.5,0.5 l -2,0 C 15.223,17.5 15,17.277 15,17 l 0,-2 c 0,-0.277 0.223,-0.5 0.5,-0.5 z"/>
 <path style="fill:#ffffff" d="m 3.5,14 2,0 C 5.777,14 6,14.223 6,14.5 l 0,2 C 6,16.777 5.777,17 5.5,17 l -2,0 C 3.223,17 3,16.777 3,16.5 l 0,-2 C 3,14.223 3.223,14 3.5,14 Z"/>
 <path style="fill:#ffffff" d="m 7.5,14 2,0 c 0.277,0 0.5,0.223 0.5,0.5 l 0,2 C 10,16.777 9.777,17 9.5,17 l -2,0 C 7.223,17 7,16.777 7,16.5 l 0,-2 C 7,14.223 7.223,14 7.5,14 Z"/>
 <path style="fill:#ffffff" d="m 11.5,14 2,0 c 0.277,0 0.5,0.223 0.5,0.5 l 0,2 c 0,0.277 -0.223,0.5 -0.5,0.5 l -2,0 C 11.223,17 11,16.777 11,16.5 l 0,-2 C 11,14.223 11.223,14 11.5,14 Z"/>
 <path style="fill:#ffffff" d="m 15.5,14 2,0 c 0.277,0 0.5,0.223 0.5,0.5 l 0,2 c 0,0.277 -0.223,0.5 -0.5,0.5 l -2,0 C 15.223,17 15,16.777 15,16.5 l 0,-2 C 15,14.223 15.223,14 15.5,14 Z"/>
 <path style="opacity:0.2" d="m 1,18 0,0.5 c 0,0.554 0.446,1 1,1 l 18,0 c 0.554,0 1,-0.446 1,-1 L 21,18 c 0,0.554 -0.446,1 -1,1 L 2,19 C 1.446,19 1,18.554 1,18 Z"/>
</svg>
